build/assets/images/svg/logo/logo.svg

<svg width="129" height="32" viewBox="0 0 129 32" fill="none" xmlns="http://www.w3.org/2000/svg">
<path d="M20.7094 2.67658C23.0898 4.01825 24.9573 5.87928 26.3141 8.25967C27.6702 10.6401 28.3483 13.3306 28.3483 16.3314C28.3483 19.3328 27.6702 22.0227 26.3141 24.4031C24.9573 26.7834 23.0898 28.6445 20.7094 29.9862C18.329 31.3278 15.6385 31.9987 12.6377 31.9987C9.95436 31.9987 7.53719 31.537 5.38834 30.6137C3.23878 29.6904 1.44266 28.3487 0 26.5887L4.45782 22.4338C6.59296 24.8294 9.20346 26.026 12.2915 26.026C14.5132 26.026 16.3958 25.3769 17.9395 24.0785C19.4824 22.7801 20.4858 21.0344 20.9474 18.8416H8.65597V13.4749H20.8609C20.3697 11.3975 19.3605 9.7384 17.8313 8.49771C16.3014 7.25775 14.4555 6.63668 12.2915 6.63668C9.20346 6.63668 6.59296 7.83409 4.45782 10.2289L0 6.07404C1.44266 4.31472 3.23878 2.97304 5.38834 2.04902C7.53719 1.12571 9.95436 0.664062 12.6377 0.664062C15.6385 0.664063 18.329 1.3349 20.7094 2.67658Z" fill="white"/>
<path d="M45.5732 19.2707H40.7259V31.4756H33.7578V1.17969H40.7259V13.4279H45.7463L53.7098 1.17969H61.1107L51.1996 15.8083L61.4136 31.4756H53.4501L45.5732 19.2707Z" fill="white"/>
<path d="M122.502 2.52136C124.478 3.41581 126 4.68535 127.068 6.32999C128.135 7.97462 128.669 9.92222 128.669 12.1728C128.669 14.3952 128.135 16.3348 127.068 17.9939C126 19.6537 124.478 20.9225 122.502 21.8025C120.525 22.6833 118.196 23.1226 115.512 23.1226H109.41V31.4756H102.398V1.17969H115.512C118.196 1.17969 120.525 1.62691 122.502 2.52136ZM119.927 16.0463C121.023 15.1374 121.571 13.8463 121.571 12.1728C121.571 10.4704 121.023 9.16482 119.927 8.25594C118.83 7.34707 117.228 6.89263 115.123 6.89263H109.41V17.4096H115.123C117.228 17.4096 118.83 16.9552 119.927 16.0463Z" fill="white"/>
<path d="M74.0469 29.6938C74.0469 29.6938 80.5922 33.4852 88.5189 29.6556C96.4456 25.8261 97.4252 19.236 97.757 16.3629C98.0881 13.4891 97.0956 9.12509 95.1213 8.02866C93.1477 6.93152 92.5216 8.77019 92.5807 9.47565C92.6399 10.1811 94.1648 12.7404 94.7051 15.2441C95.2453 17.7472 94.9085 22.1285 91.8479 25.6876C88.7873 29.2459 82.1366 32.5056 74.2222 29.3187L74.0469 29.6938Z" fill="#FFAB01"/>
<path d="M78.7266 29.491C78.7266 29.491 83.6467 30.6026 89.219 26.4903C94.792 22.3787 94.3058 14.4722 92.5371 14.0603C90.9942 13.7011 90.6104 15.0233 90.7756 16.0021C90.9401 16.981 91.4688 19.1767 91.0317 20.9468C90.5931 22.717 87.4063 29.5422 78.7266 29.491Z" fill="#FFAB01"/>
<path d="M82 28.134C82 28.134 84.5239 27.8873 87.4561 25.1029C90.3883 22.3186 89.2442 18.9449 87.8442 18.7805C86.4448 18.6167 86.4924 19.8459 86.6157 20.5795C86.7391 21.3131 87.49 22.7016 86.2731 24.8079C85.0562 26.9142 82.9947 27.6666 82 28.134Z" fill="#FFAB01"/>
<path d="M67.6537 31.6249C67.6537 31.6249 68.287 28.9444 69.5429 27.1411C69.5429 27.1411 71.9139 28.8867 75.6785 30.4362C75.6785 30.4362 75.2977 25.8788 68.8699 22.5398C68.8699 22.5398 67.0262 16.464 71.7155 14.7955C74.0043 13.9812 77.404 14.4904 81.1167 13.8917C79.7937 13.0506 77.8202 11.3736 77.4487 8.69164C75.5386 8.63105 68.0512 8.90299 67.0413 16.8016C67.0413 16.8016 66.589 8.00422 77.3881 7.88087C77.3729 6.75054 77.637 5.46152 78.3201 4.00588C78.3201 4.00588 75.8048 10.3384 82.3776 13.6436C85.9135 12.8205 89.6443 10.7849 92.9155 5.53294C92.9155 5.53294 86.7135 -1.82392 77.5742 0.4288C68.4364 2.68368 61.3204 12.3603 67.1055 23.3491C67.1055 23.3491 65.0288 27.5588 67.6537 31.6249ZM83.4177 6.27807C82.85 5.77314 82.8104 4.91476 83.3312 4.36222C83.852 3.80968 84.7341 3.77217 85.3026 4.27782C85.8717 4.78347 85.9099 5.64186 85.3891 6.19368C84.8698 6.74621 83.9868 6.78372 83.4177 6.27807Z" fill="white"/>
<path d="M70.5879 3.3577C70.5879 3.3577 66.8066 5.83403 65.0732 11.2152C65.0732 11.2152 63.6334 6.36493 65.972 2.82031L70.5879 3.3577Z" fill="white"/>
<path d="M78.6092 14.75L73.8109 14.8798L72.5312 17.4182C72.532 17.4182 75.2774 18.1662 78.6092 14.75Z" fill="white"/>
</svg>

<svg width="129" height="32" fill="none" xmlns="http://www.w3.org/2000/svg"><path d="M20.71 2.677a14.579 14.579 0 015.604 5.583c1.356 2.38 2.034 5.07 2.034 8.071 0 3.002-.678 5.692-2.034 8.072a14.58 14.58 0 01-5.605 5.583C18.33 31.328 15.64 32 12.638 32c-2.684 0-5.1-.462-7.25-1.385C3.238 29.691 1.443 28.35 0 26.59l4.458-4.155c2.135 2.395 4.745 3.592 7.833 3.592 2.222 0 4.105-.65 5.648-1.948 1.543-1.298 2.547-3.044 3.008-5.236H8.656v-5.367h12.205c-.491-2.077-1.5-3.737-3.03-4.977-1.53-1.24-3.375-1.861-5.54-1.861-3.088 0-5.698 1.197-7.833 3.592L0 6.074c1.443-1.76 3.239-3.101 5.388-4.025 2.15-.923 4.566-1.385 7.25-1.385 3 0 5.691.67 8.071 2.013zM45.573 19.27h-4.847v12.206h-6.968V1.18h6.968v12.248h5.02L53.71 1.18h7.4L51.2 15.808l10.214 15.668H53.45L45.573 19.27zm76.929-16.749c1.976.895 3.498 2.164 4.566 3.809 1.067 1.645 1.601 3.592 1.601 5.843 0 2.222-.534 4.162-1.601 5.82-1.068 1.66-2.59 2.93-4.566 3.81-1.977.88-4.306 1.32-6.99 1.32h-6.102v8.353h-7.012V1.18h13.114c2.684 0 5.013.447 6.99 1.341zm-2.575 13.525c1.096-.909 1.644-2.2 1.644-3.873 0-1.703-.548-3.008-1.644-3.917-1.097-.909-2.699-1.363-4.804-1.363h-5.713V17.41h5.713c2.105 0 3.707-.455 4.804-1.364z" fill="#fff"/><path d="M74.047 29.694s6.545 3.791 14.472-.038c7.927-3.83 8.906-10.42 9.238-13.293.331-2.874-.661-7.238-2.636-8.334-1.973-1.097-2.6.741-2.54 1.447.059.705 1.584 3.264 2.124 5.768.54 2.503.204 6.884-2.857 10.444-3.06 3.558-9.711 6.818-17.626 3.63l-.175.376z" fill="#FFAB01"/><path d="M78.727 29.491s4.92 1.112 10.492-3c5.573-4.112 5.087-12.019 3.318-12.43-1.543-.36-1.927.962-1.761 1.941.164.979.693 3.175.256 4.945-.439 1.77-3.626 8.595-12.305 8.544z" fill="#FFAB01"/><path d="M82 28.134s2.524-.247 5.456-3.031c2.932-2.784 1.788-6.158.388-6.323-1.4-.163-1.352 1.066-1.228 1.8.123.733.874 2.122-.343 4.228S82.995 27.667 82 28.134z" fill="#FFAB01"/><path d="M67.654 31.625s.633-2.68 1.889-4.484c0 0 2.37 1.746 6.135 3.295 0 0-.38-4.557-6.808-7.896 0 0-1.844-6.076 2.846-7.744 2.288-.815 5.688-.306 9.4-.904-1.322-.841-3.296-2.518-3.667-5.2-1.91-.061-9.398.211-10.408 8.11 0 0-.452-8.798 10.347-8.921-.015-1.13.249-2.42.932-3.875 0 0-2.515 6.332 4.058 9.638 3.535-.824 7.266-2.86 10.537-8.111 0 0-6.202-7.357-15.34-5.104-9.139 2.255-16.255 11.931-10.47 22.92 0 0-2.076 4.21.549 8.276zM83.418 6.278a1.33 1.33 0 01-.087-1.916 1.424 1.424 0 011.972-.084c.569.505.607 1.364.086 1.916-.52.552-1.402.59-1.971.084z" fill="#fff"/><path d="M70.588 3.358s-3.781 2.476-5.515 7.857c0 0-1.44-4.85.899-8.395l4.616.538zM78.61 14.75l-4.8.13-1.279 2.538c.001 0 2.746.748 6.078-2.668z" fill="#fff"/></svg>
